static/images/icons/arrow-right.svg

<?xml version="1.0" encoding="UTF-8"?>
<svg width="16px" height="16px" viewBox="0 0 16 16" version="1.1" xmlns="http://www.w3.org/2000/svg" xmlns:xlink="http://www.w3.org/1999/xlink">
  <title>arrow-right</title>
  <g id="arrow-right" stroke="none" stroke-width="1" fill="none" fill-rule="evenodd">
    <path d="M7.67742352,1.05885169 L7.74651163,1.10684501 L15.9920815,8.01231765 L7.74651163,14.9177903 C7.54870265,15.0834507 7.25753016,15.0531262 7.09615967,14.8500586 C6.95271924,14.669554 6.96012106,14.4133197 7.10246435,14.2422586 L7.1621374,14.1824174 L13.953,8.49431765 L0.471108119,8.49487422 C0.210922289,8.49487422 2.66453526e-15,8.2710166 2.66453526e-15,7.99487422 C2.66453526e-15,7.74941433 0.166654648,7.54526585 0.386425839,7.50292989 L0.471108119,7.49487422 L13.911,7.49431765 L7.1621374,1.84221786 C6.9863072,1.69496416 6.94343086,1.44242437 7.04940918,1.24550149 L7.09615967,1.17457672 C7.2396001,0.994072181 7.48560014,0.950056007 7.67742352,1.05885169 Z" id="Path" fill="currentColor" fill-rule="nonzero"></path>
  </g>
</svg>

<svg viewBox="0 0 16 16" xmlns="http://www.w3.org/2000/svg"><path d="M7.677 1.059l.07.048 8.245 6.905-8.245 6.906a.454.454 0 01-.65-.068.484.484 0 01.005-.608l.06-.06 6.791-5.688H.471c-.26 0-.471-.223-.471-.5 0-.245.167-.449.386-.491l.085-.008h13.44L7.162 1.841a.483.483 0 01-.113-.596l.047-.071a.454.454 0 01.581-.116z" fill="currentColor" fill-rule="nonzero"/></svg>
